!!! OTL: Berkowitz319
!!! Chapter: 1
!!! Section: III
!!! Page: 77
!!! Mode: 
!!! Encoder: DJB
**kern
*staff1
*I"Piano
=1-
*clefG2
*k[b-]
*C:
*met(c|)
*M2/2
4c/
4bn\
2b\
=2
4c/
4bn\
2b\
=3
4c/
4bn\
4a/
4b\
=4
4cc\
4g/
2g/
=5
4f/
4ee\
2ee\
=6
4f/
4ee\
2ee\
=7
4f/
4ee\
4dd\
4ee\
=8
4ff\
4ff\
2ff\
==
*-
